static/images/pieces/mono/wooden-horse.svg

<svg height="45" width="45" xmlns="http://www.w3.org/2000/svg"><g fill="#888" stroke="#888" stroke-width="1.5" transform="translate(-.56066)"><g fill-rule="evenodd" stroke-linecap="round" stroke-linejoin="round"><path d="m22 10c2.988512.28462 6.133921.468341 7.825806 2.49647l5.267407 6.314248 2.906787 20.189282h-20.8125l1.127159-7.028594 4.335008-6.008954c1.18167-1.637967.835871-4.442303.350333-7.962452"/><path d="m24 18-6.453204 8.425476c-2.920313 3.07584-3.681205 4.938422-4.221621 4.680163l-3.4135633-2.077911-1.7902914-2.497398 2.7775627-6.610547 1.101117-5.919783 2-3.5.169643-3 1.959602-.1675936.370755 2.6675936h2l1.651786-2.8660714 1.653408.4140071.194806 2.4520643"/><path d="m16.167741 15.578817c-1.741339 1.010444-2.245744.136763-.499979-.866012 1.74134-1.010443 2.245747-.136763.499979.866012z"/><path d="m11.779029 25.68252c0 .666666-1 .666666-1 0s1-.666666 1 0z"/></g><path d="m28.637825 16.450564c.53033.441942 3.093592 5.038136 3.093592 5.038136l1.414213 12.551145"/></g></svg>

<?xml version="1.0" encoding="UTF-8" standalone="no"?>
<svg
   xmlns:dc="http://purl.org/dc/elements/1.1/"
   xmlns:cc="http://creativecommons.org/ns#"
   xmlns:rdf="http://www.w3.org/1999/02/22-rdf-syntax-ns#"
   xmlns:svg="http://www.w3.org/2000/svg"
   xmlns="http://www.w3.org/2000/svg"
   xmlns:sodipodi="http://sodipodi.sourceforge.net/DTD/sodipodi-0.dtd"
   xmlns:inkscape="http://www.inkscape.org/namespaces/inkscape"
   width="45"
   height="45"
   version="1.1"
   id="svg11575"
   sodipodi:docname="wooden-horse.svg"
   inkscape:version="0.92.5 (2060ec1f9f, 2020-04-08)">
  <metadata
     id="metadata11581">
    <rdf:RDF>
      <cc:Work
         rdf:about="">
        <dc:format>image/svg+xml</dc:format>
        <dc:type
           rdf:resource="http://purl.org/dc/dcmitype/StillImage" />
        <dc:title></dc:title>
      </cc:Work>
    </rdf:RDF>
  </metadata>
  <defs
     id="defs11579" />
  <sodipodi:namedview
     pagecolor="#ffffff"
     bordercolor="#666666"
     borderopacity="1"
     objecttolerance="10"
     gridtolerance="10"
     guidetolerance="10"
     inkscape:pageopacity="0"
     inkscape:pageshadow="2"
     inkscape:window-width="1848"
     inkscape:window-height="1016"
     id="namedview11577"
     showgrid="false"
     inkscape:zoom="5.6568543"
     inkscape:cx="59.319031"
     inkscape:cy="26.634487"
     inkscape:window-x="72"
     inkscape:window-y="27"
     inkscape:window-maximized="1"
     inkscape:current-layer="svg11575"
     inkscape:document-rotation="0" />
  <g
     id="g2477"
     transform="translate(-0.56065956)"
     style="fill:#888888;fill-opacity:1;stroke:#888888;stroke-opacity:1">
    <g
       fill="none"
       fill-rule="evenodd"
       stroke="#000000"
       stroke-width="1.5"
       stroke-linecap="round"
       stroke-linejoin="round"
       id="g11573"
       style="fill:#888888;fill-opacity:1;stroke:#888888;stroke-opacity:1">
      <path
         d="m 22,10 c 2.988512,0.28462 6.133921,0.468341 7.825806,2.49647 L 35.093213,18.810718 38,39 H 17.1875 l 1.127159,-7.028594 4.335008,-6.008954 C 23.831337,24.324485 23.485538,21.520149 23,18"
         fill="#fff"
         id="path11567"
         style="fill:#888888;fill-opacity:1;stroke:#888888;stroke-opacity:1"
         sodipodi:nodetypes="csccccsc" />
      <path
         d="m 24,18 -6.453204,8.425476 c -2.920313,3.07584 -3.681205,4.938422 -4.221621,4.680163 L 9.9116117,29.027728 8.1213203,26.53033 10.898883,19.919783 12,14 14,10.5 14.169643,7.5 16.129245,7.3324064 16.5,10 h 2 L 20.151786,7.1339286 21.805194,7.5479357 22,10"
         fill="#fff"
         id="path11569"
         style="fill:#888888;fill-opacity:1;stroke:#888888;stroke-opacity:1"
         sodipodi:nodetypes="ccscccccccccccc" />
      <path
         style="fill:#888888;fill-opacity:1;stroke:#888888;stroke-opacity:1"
         d="m 16.167741,15.578817 c -1.741339,1.010444 -2.245744,0.136763 -0.499979,-0.866012 1.74134,-1.010443 2.245747,-0.136763 0.499979,0.866012 z"
         id="path2469" />
      <path
         style="fill:#888888;fill-opacity:1;stroke:#888888;stroke-opacity:1"
         d="m 11.779029,25.68252 c 0,0.666666 -1,0.666666 -1,0 0,-0.666666 1,-0.666666 1,0 z"
         id="path11571" />
    </g>
    <path
       style="fill:#888888;stroke:#888888;stroke-width:1.5;stroke-linecap:butt;stroke-linejoin:miter;stroke-miterlimit:4;stroke-dasharray:none;stroke-opacity:1;fill-opacity:1"
       d="m 28.637825,16.450564 c 0.53033,0.441942 3.093592,5.038136 3.093592,5.038136 l 1.414213,12.551145"
       id="path1259" />
  </g>
</svg>
